svgs/google_photos.svg

<svg width="192" height="192" viewBox="0 0 192 192" fill="none" xmlns="http://www.w3.org/2000/svg">
<path d="M96 22L96 96C116.435 96 133 79.4345 133 59C133 38.5655 116.435 22 96 22Z" stroke="black" stroke-width="12" stroke-linejoin="round"/>
<path d="M96 96L96 170C75.5655 170 59 153.435 59 133C59 112.565 75.5655 96 96 96Z" stroke="black" stroke-width="12" stroke-linejoin="round"/>
<path d="M170 96L96 96C96 116.435 112.565 133 133 133C153.435 133 170 116.435 170 96Z" stroke="black" stroke-width="12" stroke-linejoin="round"/>
<path d="M96 96L22 96C22 75.5655 38.5655 59 59 59C79.4345 59 96 75.5655 96 96Z" stroke="black" stroke-width="12" stroke-linejoin="round"/>
</svg>

<svg width="192" height="192" viewBox="0 0 192 192" fill="none" xmlns="http://www.w3.org/2000/svg"><path d="M96 22v74c20.435 0 37-16.566 37-37s-16.565-37-37-37ZM96 96v74c-20.434 0-37-16.565-37-37s16.566-37 37-37ZM170 96H96c0 20.435 16.565 37 37 37s37-16.565 37-37ZM96 96H22c0-20.434 16.566-37 37-37s37 16.566 37 37Z" stroke="#000" stroke-width="12" stroke-linejoin="round"/></svg>
